X:529
T:Jig of Life
R:jig
D:Kate Bush
Z:id:hn-jig-529
M:6/8
L:1/8
K:Am
AB^c cBA | =cBA GAD | EGc ABG |1 d2c ABG :|2 d2c Bcd ||
|: g2e dec | cde G3 |1 GcA dBe | Aed cda :|2 FDA EBG | e3 edc | Bcd GAB ||  

